X:7
T:Paddy's Resource
S:Trad, arr. Paddy O'Brien
Z:Set: Paddy's Resource/Pipe on the Hob/Blooming Meadows
R:jig
E:11
I:speed 350
M:6/8
K:G
d|GFG DB,D|GBd ~e2d|gdB BAB|cBc ~E2F|\
GFG DB,D|GBd ~e2d|gdB BAB|cEF G2:|\
D|GBd GBd|GBd cBA|GBd efg|fd^c def|\
gfg fdf|ece ~d2B|cBc Adc|BGF G2:|**

